X: 130492
T: Mill Pond
S: "Treoir" 
Z: B.Black
M: 6/8
L: 1/8
R: jig 
K: G
E | DGG BGG | dGG BGG | DFA DFA | DFA cBA |
DGG BGG | dGG BGG | DFA cBA | BGG G2 :|
d | Bdg bgg | aff gee | Ace a2 a | gag fed |
Bdg bgg | aff gee | ABc dcA | AGF G2 :|
